X: 150
T: No_83_The_Women_are_Singing.krn
N: Derived from No_83_The_Women_are_Singing.krn
%%abc-version 2.0
%%abcx-abcm2ps-target-version 5.9.1 (29 Sep 2008)
%%abc-creator hum2abc beta
%%abcx-conversion-date 2019/03/15 08:37:56
%%humdrum-veritas 1241677129
%%humdrum-veritas-data 2925742783
%%linebreak <none>
%%barnumbers 0
L: 1/16
M: 2/4
K: Bb clef=bass
F,F, [I:setbarnb 1]| 
DDD3/B,/ B,3C | 
C3B, (3G,2F,2F,2 ]|:  
E,3E, (3G,2F,2F,2 ||  
[M:3/4]F,3D, F,3D, F,/F,3/F,F, ||  
[M:2/4]F,4B,3F, ||  
[M:3/4]F,3F, E,3E, (3G,2F,2F,2 | 
F,3D, F,3D, F,/F,3/F,F, ||  
[M:2/4]F,8 |]  



